logos/chrome-web-store.svg

<?xml version="1.0" encoding="UTF-8"?>
<svg width="256px" height="223px" viewBox="0 0 256 223" version="1.1" xmlns="http://www.w3.org/2000/svg" xmlns:xlink="http://www.w3.org/1999/xlink" preserveAspectRatio="xMidYMid" >
    <title>Chrome Web Store</title>
    <defs>
        <path d="M255.983159,0 L0,0 L0,204.83705 C0,214.470101 7.81422275,222.301164 17.4641142,222.301164 L238.535886,222.301164 C248.168936,222.301164 256,214.486942 256,204.83705 L255.983159,0 L255.983159,0 Z" id="path-1"></path>
        <linearGradient x1="0%" y1="50%" x2="100%" y2="50%" id="linearGradient-3">
            <stop stop-color="#D93025" offset="0%"></stop>
            <stop stop-color="#EA4335" offset="100%"></stop>
        </linearGradient>
        <linearGradient x1="74.9425053%" y1="95.8262545%" x2="19.8128739%" y2="-4.16095532%" id="linearGradient-4">
            <stop stop-color="#1E8E3E" offset="0%"></stop>
            <stop stop-color="#34A853" offset="100%"></stop>
        </linearGradient>
        <linearGradient x1="59.8983718%" y1="-0.134357063%" x2="21.4162235%" y2="99.8597528%" id="linearGradient-5">
            <stop stop-color="#FBBC04" offset="0%"></stop>
            <stop stop-color="#FCC934" offset="100%"></stop>
        </linearGradient>
    </defs>
    <g>
        <path d="M255.983159,0 L0,0 L0,204.83705 C0,214.470101 7.81422275,222.301164 17.4641142,222.301164 L238.535886,222.301164 C248.168936,222.301164 256,214.486942 256,204.83705 L255.983159,0 L255.983159,0 Z" fill="#F1F3F4"></path>
        <rect fill="#E8EAED" x="0" y="0" width="255.983159" height="111.740017"></rect>
        <path d="M157.075982,47.7273864 L98.9071772,47.7273864 C92.4739162,47.7273864 87.270048,42.5235182 87.270048,36.0902572 L87.270048,36.0902572 C87.270048,29.6569963 92.4739162,24.4531281 98.9071772,24.4531281 L157.075982,24.4531281 C163.509243,24.4531281 168.713111,29.6569963 168.713111,36.0902572 L168.713111,36.0902572 C168.713111,42.5066772 163.509243,47.7273864 157.075982,47.7273864 Z" fill="#FFFFFF"></path>
        <g>
            <mask id="mask-2" fill="white">
                <use xlink:href="#path-1"></use>
            </mask>
            <g mask="url(#mask-2)">
                <g transform="translate(17.455382, 94.292744)">
                    <path d="M14.8119693,55.2553122 L30.0530718,101.753306 L62.6909246,138.180383 L110.536198,55.2721531 L206.260427,55.2553122 C187.145895,22.2132754 151.44298,0 110.536198,0 C69.6294155,0 33.9265012,22.2132754 14.8119693,55.2553122 Z" fill="url(#linearGradient-3)"></path>
                    <path d="M110.519357,221.105454 L143.15721,184.661535 L158.381471,138.180383 L62.6740836,138.180383 L14.8119693,55.2553122 C-4.23519867,88.3310309 -5.63300144,130.383001 14.8288103,165.816459 C35.273781,201.249918 72.3744981,221.071772 110.519357,221.105454 Z" fill="url(#linearGradient-4)"></path>
                    <path d="M206.260427,55.2721531 L110.536198,55.2721531 L158.398312,138.180383 L110.536198,221.105454 C148.697898,221.071772 185.798615,201.249918 206.243586,165.816459 C226.705397,130.383001 225.307595,88.3478719 206.260427,55.2721531 Z" fill="url(#linearGradient-5)"></path>
                    <ellipse fill="#F1F3F4" cx="110.536198" cy="110.544306" rx="55.2553122" ry="55.2721531"></ellipse>
                    <ellipse fill="#1A73E8" cx="110.536198" cy="110.544306" rx="44.8980988" ry="44.9149398"></ellipse>
                </g>
            </g>
        </g>
        <rect fill="#BDC1C6" opacity="0.1" x="0" y="111.740017" width="255.983159" height="1.44832577"></rect>
        <rect fill="#BDC1C6" opacity="0.1" x="0" y="110.27485" width="255.983159" height="1.44832577"></rect>
    </g>
</svg>

<svg xmlns:xlink="http://www.w3.org/1999/xlink" preserveAspectRatio="xMidYMid" viewBox="0 0 256 223" xmlns="http://www.w3.org/2000/svg">
  <defs>
    <linearGradient id="chrome-web-store_svg__c" x1="0%" x2="100%" y1="50%" y2="50%">
      <stop offset="0%" stop-color="#D93025"/>
      <stop offset="100%" stop-color="#EA4335"/>
    </linearGradient>
    <linearGradient id="chrome-web-store_svg__d" x1="74.943%" x2="19.813%" y1="95.826%" y2="-4.161%">
      <stop offset="0%" stop-color="#1E8E3E"/>
      <stop offset="100%" stop-color="#34A853"/>
    </linearGradient>
    <linearGradient id="chrome-web-store_svg__e" x1="59.898%" x2="21.416%" y1="-.134%" y2="99.86%">
      <stop offset="0%" stop-color="#FBBC04"/>
      <stop offset="100%" stop-color="#FCC934"/>
    </linearGradient>
    <path id="chrome-web-store_svg__a" d="M255.983 0H0v204.837c0 9.633 7.814 17.464 17.464 17.464h221.072c9.633 0 17.464-7.814 17.464-17.464L255.983 0Z"/>
  </defs>
  <path fill="#F1F3F4" d="M255.983 0H0v204.837c0 9.633 7.814 17.464 17.464 17.464h221.072c9.633 0 17.464-7.814 17.464-17.464L255.983 0Z"/>
  <path fill="#E8EAED" d="M0 0h255.983v111.74H0z"/>
  <path fill="#FFF" d="M157.076 47.727H98.907A11.63 11.63 0 0 1 87.27 36.09a11.63 11.63 0 0 1 11.637-11.637h58.169a11.63 11.63 0 0 1 11.637 11.637c0 6.417-5.204 11.637-11.637 11.637Z"/>
  <mask id="chrome-web-store_svg__b" fill="#fff">
    <use xlink:href="#chrome-web-store_svg__a"/>
  </mask>
  <g mask="url(#chrome-web-store_svg__b)">
    <g transform="translate(17.455 94.293)">
      <path fill="url(#chrome-web-store_svg__c)" d="m14.812 55.255 15.241 46.498 32.638 36.427 47.845-82.908 95.724-.017C187.146 22.213 151.443 0 110.536 0 69.63 0 33.926 22.213 14.812 55.255Z"/>
      <path fill="url(#chrome-web-store_svg__d)" d="m110.52 221.105 32.637-36.443 15.224-46.482H62.674L14.812 55.255c-19.047 33.076-20.445 75.128.017 110.561 20.445 35.434 57.545 55.256 95.69 55.29Z"/>
      <path fill="url(#chrome-web-store_svg__e)" d="M206.26 55.272h-95.724l47.862 82.908-47.862 82.925c38.162-.033 75.263-19.855 95.708-55.289 20.461-35.433 19.064-77.468.016-110.544Z"/>
      <ellipse cx="110.536" cy="110.544" fill="#F1F3F4" rx="55.255" ry="55.272"/>
      <ellipse cx="110.536" cy="110.544" fill="#1A73E8" rx="44.898" ry="44.915"/>
    </g>
  </g>
  <path fill="#BDC1C6" d="M0 111.74h255.983v1.448H0z" opacity=".1"/>
  <path fill="#BDC1C6" d="M0 110.275h255.983v1.448H0z" opacity=".1"/>
</svg>
